X:1
T:Title
%%score [ ( 1 2 ) ( 3 4 ) ]
L:1/8
Q:1/4=120
M:3/8
K:G
V:1 treble nm="Midi_74" snm=" "
V:2 treble 
V:3 bass nm="Midi_74"
V:4 bass 
V:1
"^We three kings of Orient are""^J.H. Hopkins" B2 A | G2 E | FGF | E2 z |"^J.H. Hopkins" B2 A | %5
w: We three|kings of|O- ri- ent|are;|bear- ing|
w: |||||
w: ~~Frank- in-|cense to|of- fer have|I;|in- cense|
w: |||||
w: Glor- ious|now, be-|hold him a-|rise,|King, and|
 G2 E | (FG)F | E2 z | G2 G | A2 A | B2 B | dcB | ABA | G2 F | E3 | (F2 A) | G2 G | G2 D | G2 E | %19
w: gifts we|tra- verse a-|far|field and|foun- tain,|moor and|moun * tain,|fol- low- ing|yon- der|star:|O *|star of|won- der,|star of|
w: ||||||||||||||
w: owns a|de- i- ty|nigh;|prayer and|prais- ing,|all men|rais * ing,|wor- ship him,|God most|high:|||||
w: ||||||||||||||
w: God, and|sa * cri-|fice!|Heav'n sings|al- le-|lu- ya,|al * le-|lu- ya the|earth re-|plies:|||||
 G2 z | G2 G | G2 D | G2 E | G2 z | G2 G | A2 B | c2 B | A2 B | G2 G | G2 D | G2 E | G3 |] %32
w: night,|star with|roy- al|beau- ty|bright,|west- ward|lead- ing,|still pro-|ceed- ing,|guide us|to thy|per- fect|light.|
w: |||||||||||||
w: |||||||||||||
w: |||||||||||||
w: |||||||||||||
V:2
 G2 F | E2 E | ^DDD | E2 z | G2 F | E2 E | (^DD)D | E2 z | E2 E | F2 F | G2 G | GFG | FGF | E2 ^D | %14
w: ||||||||||||||
w: ~~Born a|king on|Beth- le- hem|plain,|gold I|bring, to|crown him a-|gain:|king for|e- ver,|ceas- ing|ne * ver,|o- ver us|all to|
w: ||||||||||||||
w: ~~~Myrrh is|mine; its|bit- ter per-|fume|breathes a|life of|ga- ther- ing|gloom;|sorrow- ing,|sigh- ing,|bleed- ing,|dy * ing,|sealed in the|stone- cold|
 E3 | D3 | D2 D | D2 B, | B,2 E | D2 z | D2 D | D2 B, | B,2 E | D2 z | E2 E | F2 F | G2 G | G2 F | %28
w: ||||||||||||||
w: reign:||||||||||||||
w: ||||||||||||||
w: tomb:||||||||||||||
 G2 D | B,2 D | E2 C | D3 |] %32
w: ||||
w: ||||
w: ||||
w: ||||
V:3
 B,2 B, | B,2 G, | A,B,A, | G,2 z | B,2 B, | B,2 G, | (A,B,)A, | G,2 z | B,2 B, | D2 D | D2 D | %11
 B,CD | CCC | B,2 A, | G,3 | (A,2 C) | B,2 B, | B,2 G, | G,2 C | B,2 z | B,2 B, | B,2 G, | G,2 C | %23
 B,2 z |"^This edition  Andrew Sims 2014" B,2 B, | D2 D | E2 D | D2 C | B,2 B, | G,2 G, | G,2 C | %31
 B,3 |] %32
V:4
 E,2 E, | E,2 E, | B,,B,,B,, | E,2 z | E,2 E, | E,2 E, | (B,,B,,)B,, | E,2 z | E,2 E, | D,2 D, | %10
 G,2 G, | B,A,G, | A,A,A, | B,2 B,, | E,3 | D,3 | G,2 G, | G,2 G, | E,2 C, | G,2 z | G,2 G, | %21
 G,2 G, | E,2 C, | G,2 z | E,2 E, | D,2 D, | C,2 G, | D,2 D, | G,2 G, | G,2 B,, | C,2 C, | G,,3 |] %32

